**kern	**silbe	**kern	**silbe	**kern	**silbe
*ICvox	*	*ICvox	*	*ICvox	*
=1	=1	=1	=1	=1	=1
*C:	*	*C:	*	*C:	*
*M4/4	*	*M4/4	*	*M4/4	*
*clefF4	*	*clefF4	*	*clefF4	*
1r	.	1r	.	1r	.
=2	=2	=2	=2	=2	=2
1r	.	1r	.	1r	.
=3	=3	=3	=3	=3	=3
1r	.	1r	.	1r	.
=4	=4	=4	=4	=4	=4
1r	.	1r	.	1r	.
=5	=5	=5	=5	=5	=5
1r	.	1r	.	1r	.
=6	=6	=6	=6	=6	=6
1r	.	1r	.	1r	.
=7	=7	=7	=7	=7	=7
1r	.	1r	.	1r	.
=8	=8	=8	=8	=8	=8
1r	.	1r	.	1r	.
=9	=9	=9	=9	=9	=9
1r	.	1r	.	1r	.
=10	=10	=10	=10	=10	=10
8d	Used	1r	.	1r	.
8e	to	.	.	.	.
8d	think	.	.	.	.
8c	that	.	.	.	.
4c	life	.	.	.	.
8A	was	.	.	.	.
16.e	sweet	.	.	.	.
32d	_	.	.	.	.
=11	=11	=11	=11	=11	=11
8e	_	1r	.	1r	.
8r	.	.	.	.	.
4r	.	.	.	.	.
2r	.	.	.	.	.
=12	=12	=12	=12	=12	=12
4r	.	1r	.	1r	.
8A	Used	.	.	.	.
8c	to	.	.	.	.
8c	think	.	.	.	.
8A	we	.	.	.	.
8c	were	.	.	.	.
[8d	so	.	.	.	.
=13	=13	=13	=13	=13	=13
8d]	_	1r	.	1r	.
8d	com-	.	.	.	.
16B	-plete	.	.	.	.
16A	_	.	.	.	.
8G	_	.	.	.	.
2r	.	.	.	.	.
=14	=14	=14	=14	=14	=14
8r	.	1r	.	1r	.
8F	I	.	.	.	.
8A	can't	.	.	.	.
8c	be-	.	.	.	.
4c	-lieve	.	.	.	.
8Gq	_	.	.	.	.
8A	you'd	.	.	.	.
8G	_	.	.	.	.
=15	=15	=15	=15	=15	=15
4r	.	1r	.	1r	.
8r	.	.	.	.	.
8A	you'd	.	.	.	.
8c	throw	.	.	.	.
8d	it	.	.	.	.
8e	a	.	.	.	.
8eq	_	.	.	.	.
8f	way	.	.	.	.
=16	=16	=16	=16	=16	=16
4e	_	1r	.	1r	.
4r	.	.	.	.	.
2r	.	.	.	.	.
=17	=17	=17	=17	=17	=17
2r	.	1r	.	1r	.
4r	.	.	.	.	.
8r	.	.	.	.	.
8dq	_	.	.	.	.
[8e	_	.	.	.	.
=18	=18	=18	=18	=18	=18
8e]	_	1r	.	1r	.
8e	to	.	.	.	.
8d	feel	.	.	.	.
8c	we	.	.	.	.
4c	had	.	.	.	.
8A	it	.	.	.	.
16.e	made	.	.	.	.
32d	_	.	.	.	.
=19	=19	=19	=19	=19	=19
8e	_	1r	.	1r	.
8r	.	.	.	.	.
4r	.	.	.	.	.
2r	.	.	.	.	.
=20	=20	=20	=20	=20	=20
4r	.	1r	.	1r	.
8A	Used	.	.	.	.
8c	to	.	.	.	.
8c	feel	.	.	.	.
8c	we	.	.	.	.
8c	could	.	.	.	.
[8d	sail	.	.	.	.
=21	=21	=21	=21	=21	=21
8d]	_	1r	.	1r	.
8d	a-	.	.	.	.
16B	-way	.	.	.	.
16A	_	.	.	.	.
8G	_	.	.	.	.
2r	.	.	.	.	.
=22	=22	=22	=22	=22	=22
8r	.	1r	.	1r	.
8A	Can	.	.	.	.
8A	you	.	.	.	.
8c	i-	.	.	.	.
4c	-ma-	.	.	.	.
8Gq	_	.	.	.	.
4A	-gine	.	.	.	.
=23	=23	=23	=23	=23	=23
4r	.	1r	.	1r	.
8r	.	.	.	.	.
8A	how	.	.	.	.
8c	I	.	.	.	.
8d	feel	.	.	.	.
8e	to	.	.	.	.
8eq	_	.	.	.	.
8f	day	.	.	.	.
=24	=24	=24	=24	=24	=24
4e	_	1r	.	1r	.
4r	.	.	.	.	.
2r	.	.	.	.	.
=25	=25	=25	=25	=25	=25
2r	.	1r	.	1r	.
8r	.	.	.	.	.
8d	Well,	.	.	.	.
8e	it	.	.	.	.
[8f	seems	.	.	.	.
=26	=26	=26	=26	=26	=26
8f]	_	1r	.	1r	.
8f	a	.	.	.	.
8dq	_	.	.	.	.
8e	long	.	.	.	.
8d	_	.	.	.	.
4d	time	.	.	.	.
8c	a-	.	.	.	.
16d	-go	.	.	.	.
16c	_	.	.	.	.
=27	=27	=27	=27	=27	=27
8A	_	1r	.	1r	.
8r	.	.	.	.	.
4r	.	.	.	.	.
8r	.	.	.	.	.
8B	You	.	.	.	.
8B	were	.	.	.	.
8A	the	.	.	.	.
=28	=28	=28	=28	=28	=28
4.A	lone-	1r	.	1r	.
8e	-ly	.	.	.	.
2e	one	.	.	.	.
=29	=29	=29	=29	=29	=29
2r	.	1r	.	1r	.
4r	.	.	.	.	.
8r	.	.	.	.	.
8e	Now	.	.	.	.
=30	=30	=30	=30	=30	=30
8f	_	1r	.	1r	.
8f	it	.	.	.	.
8e	comes	.	.	.	.
8d	to	.	.	.	.
8d	let-	.	.	.	.
[8c	-ting	.	.	.	.
8c]	_	.	.	.	.
8d	go	.	.	.	.
=31	=31	=31	=31	=31	=31
16c	_	1r	.	1r	.
8A	_	.	.	.	.
16r	.	.	.	.	.
4r	.	.	.	.	.
8r	.	.	.	.	.
8B	You	.	.	.	.
8B	are	.	.	.	.
8A	the	.	.	.	.
=32	=32	=32	=32	=32	=32
4.A	on-	1r	.	1r	.
8e	-ly	.	.	.	.
2e	one	.	.	.	.
=33	=33	=33	=33	=33	=33
2r	.	1r	.	1r	.
8r	.	.	.	.	.
8c	Do	.	.	.	.
8c	you	.	.	.	.
8A	know	.	.	.	.
=34	=34	=34	=34	=34	=34
4.A	what	1r	.	1r	.
8e	you've	.	.	.	.
4.e	done	.	.	.	.
16f	_	.	.	.	.
16e	_	.	.	.	.
=35	=35	=35	=35	=35	=35
4.d	_	1r	.	1r	.
16e	_	.	.	.	.
16r	.	.	.	.	.
2r	.	.	.	.	.
=36	=36	=36	=36	=36	=36
8e	It's	8G c	It's	1r	.
4d	so	4G B	so	.	.
[8d	fun	[8G [B	fun	.	.
8d]	_	8G] B]	_	.	.
4e	ny	4G c	ny	.	.
8r	.	8r	.	.	.
=37	=37	=37	=37	=37	=37
4r	.	4r	.	1r	.
8d	how	8G B	how	.	.
[8e	we	[8G [c	we	.	.
8e]	_	8G] c]	_	.	.
4d	don't	4G B	don't	.	.
[8f	talk	[8A [d	talk	.	.
=38	=38	=38	=38	=38	=38
4.f]	_	4.A] d]	_	1r	.
16e	a-	16A c	a-	.	.
16d	-ny-	16G B	-ny-	.	.
4.c	-more	4.F A	-more	.	.
8r	.	8r	.	.	.
=39	=39	=39	=39	=39	=39
1r	.	1r	.	1r	.
=40	=40	=40	=40	=40	=40
8e	It's	8G c	It's	1r	.
4d	so	4G B	so	.	.
[8d	fun	[8G [B	fun	.	.
8d]	_	8G] B]	_	.	.
4e	ny	4G c	ny	.	.
8r	.	8r	.	.	.
=41	=41	=41	=41	=41	=41
4r	.	4r	.	1r	.
8d	why	8G B	why	.	.
[8e	we	[8G [c	we	.	.
8e]	_	8G] c]	_	.	.
4d	don't	4G B	don't	.	.
[8f	talk	8A [d	talk	.	.
=42	=42	=42	=42	=42	=42
4.f]	_	4.A d]	_	1r	.
16f	a-	16A d	a-	.	.
16g	-ny-	16c e	-ny-	.	.
4.f	-more	4.A c	-more	.	.
8r	.	8r	.	.	.
=43	=43	=43	=43	=43	=43
4r	.	1r	.	1r	.
8r	.	.	.	.	.
16c	But	.	.	.	.
16c	I	.	.	.	.
8a	ain't	.	.	.	.
8g	lo-	.	.	.	.
8g	-sin'	.	.	.	.
8g	sleep	.	.	.	.
=44	=44	=44	=44	=44	=44
8dq	_	.	.	.	.
4.e	_	1r	.	1r	.
8r	.	.	.	.	.
2r	.	.	.	.	.
=45	=45	=45	=45	=45	=45
4r	.	1r	.	1r	.
8r	.	.	.	.	.
16e	And	.	.	.	.
16e	I	.	.	.	.
8f	ain't	.	.	.	.
8f	coun-	.	.	.	.
8f	-tin'	.	.	.	.
8g	sheep	.	.	.	.
=46	=46	=46	=46	=46	=46
8d#q	_	.	.	.	.
8e	_	1r	.	1r	.
8d#q	_	.	.	.	.
8e	_	.	.	.	.
4r	.	.	.	.	.
2r	.	.	.	.	.
=47	=47	=47	=47	=47	=47
1r	.	1r	.	1r	.
=48	=48	=48	=48	=48	=48
*A:	*	*A:	*	*A:	*
1r	.	8e a cc#	It's	1r	.
.	.	4e g# b	so	.	.
.	.	[8e [g# [b	fun	.	.
.	.	8e] g#] b]	_	.	.
.	.	4e a cc#	ny	.	.
.	.	8r	.	.	.
=49	=49	=49	=49	=49	=49
1r	.	4r	.	1r	.
.	.	8e g# b	how	.	.
.	.	[8e [a [cc#	we	.	.
.	.	8e] a] cc#]	_	.	.
.	.	4e g# b	don't	.	.
.	.	[8f# [b [dd	talk	.	.
=50	=50	=50	=50	=50	=50
2r	.	1f#_ b_ dd_	_	1r	.
8r	.	.	.	.	.
16a	A-	.	.	.	.
16a	-ny-	.	.	.	.
8g#	-more	.	.	.	.
[8f#	_	.	.	.	.
=51	=51	=51	=51	=51	=51
4.f#]	_	2f#] b] dd]	_	1r	.
8r	.	.	.	.	.
2r	.	2r	.	.	.
=52	=52	=52	=52	=52	=52
*C:	*	*C:	*	*C:	*
*clefG2	*	*	*	*	*
4r	.	1r	.	1r	.
8r	.	.	.	.	.
16dd	Ah,	.	.	.	.
[16ee	_	.	.	.	.
4.ee]	_	.	.	.	.
[8dd	_	.	.	.	.
=53	=53	=53	=53	=53	=53
4.dd]	_	1r	.	1r	.
[8cc	_	.	.	.	.
8cc]	_	.	.	.	.
8cc	we	.	.	.	.
8ccq	_	.	.	.	.
[4dd	don't	.	.	.	.
=54	=54	=54	=54	=54	=54
8dd]	_	1r	.	1r	.
8gq	_	.	.	.	.
8a	talk	.	.	.	.
8gq	_	.	.	.	.
8a	_	.	.	.	.
8r	.	.	.	.	.
2r	.	.	.	.	.
=55	=55	=55	=55	=55	=55
1r	.	1r	.	1r	.
=56	=56	=56	=56	=56	=56
2r	.	1r	.	1r	.
8r	.	.	.	.	.
8gq	_	.	.	.	.
4a	_	.	.	.	.
[8g	_	.	.	.	.
=57	=57	=57	=57	=57	=57
4.g]	_	1r	.	1r	.
16e	_	.	.	.	.
16d	_	.	.	.	.
2r	.	.	.	.	.
=58	=58	=58	=58	=58	=58
1r	.	1r	.	1r	.
=59	=59	=59	=59	=59	=59
*clefF4	*	*clefG2	*	*	*
2r	.	1r	.	1r	.
4r	.	.	.	.	.
8r	.	.	.	.	.
16G	Well,	.	.	.	.
16G	it	.	.	.	.
=60	=60	=60	=60	=60	=60
8e	real-	8g	real-	1r	.
8e	-ly	8g	-ly	.	.
8d	does-	8f	does-	.	.
8c	-n't	8e	-n't	.	.
8c	mat-	8e	mat-	.	.
8c	-ter	8e	-ter	.	.
8A	to	8c	to	.	.
16.e	me	16.g	me	.	.
32d	_	32f	_	.	.
=61	=61	=61	=61	=61	=61
8e	_	8g	_	1r	.
8r	.	8r	.	.	.
4r	.	4r	.	.	.
2r	.	2r	.	.	.
=62	=62	=62	=62	=62	=62
8r	.	1r	.	1r	.
8A	I	.	.	.	.
8c	guess	.	.	.	.
8c	your	.	.	.	.
8c	lea-	.	.	.	.
8A	-vin'	.	.	.	.
8r	.	.	.	.	.
8c	was	.	.	.	.
=63	=63	=63	=63	=63	=63
8d	meant	1r	.	1r	.
8d	to	.	.	.	.
16B	be	.	.	.	.
16A	_	.	.	.	.
8G	_	.	.	.	.
2r	.	.	.	.	.
=64	=64	=64	=64	=64	=64
8r	.	1r	.	1r	.
8F	It's	.	.	.	.
8A	down	.	.	.	.
8c	to	.	.	.	.
4c	you,	.	.	.	.
8Gq	_	.	.	.	.
8A	now	.	.	.	.
8r	.	.	.	.	.
=65	=65	=65	=65	=65	=65
4r	.	2r	.	1r	.
8r	.	.	.	.	.
8A	you	.	.	.	.
8c	wan-	8e	wan-	.	.
8d	-na	8f	-na	.	.
8e	be	8g	be	.	.
16f	free	16a	free	.	.
[16e	_	[16g	_	.	.
=66	=66	=66	=66	=66	=66
16e]	_	16g]	_	1r	.
16d	_	16f	_	.	.
8c	_	8e	_	.	.
4r	.	4r	.	.	.
2r	.	2r	.	.	.
=67	=67	=67	=67	=67	=67
2r	.	1r	.	1r	.
8r	.	.	.	.	.
8d	Well,	.	.	.	.
8e	I	.	.	.	.
[8f	hope	.	.	.	.
=68	=68	=68	=68	=68	=68
8f]	_	1r	.	1r	.
8c	you	.	.	.	.
8e	know	.	.	.	.
8d	which	.	.	.	.
8d	way	.	.	.	.
8c	_	.	.	.	.
8c	to	.	.	.	.
8d	go	.	.	.	.
=69	=69	=69	=69	=69	=69
16c	_	1r	.	1r	.
8A	_	.	.	.	.
16r	.	.	.	.	.
4r	.	.	.	.	.
8r	.	.	.	.	.
8B	You're	.	.	.	.
8B	on	.	.	.	.
8A	your	.	.	.	.
=70	=70	=70	=70	=70	=70
4.A	own	1r	.	1r	.
8e	a-	.	.	.	.
[4e	-gain	.	.	.	.
16e]	_	.	.	.	.
16f	_	.	.	.	.
8r	.	.	.	.	.
=71	=71	=71	=71	=71	=71
2r	.	1r	.	1r	.
4r	.	.	.	.	.
8r	.	.	.	.	.
8eq	_	.	.	.	.
[8f	Don't	.	.	.	.
=72	=72	=72	=72	=72	=72
4f]	_	1r	.	1r	.
8e	come	.	.	.	.
8d	n'-	.	.	.	.
8e	-cry-	.	.	.	.
8d	-in'	.	.	.	.
[8c	to	.	.	.	.
16d	me	.	.	.	.
16e	_	.	.	.	.
=73	=73	=73	=73	=73	=73
2r	.	1r	.	1r	.
8r	.	.	.	.	.
8B	when	.	.	.	.
8B	you're	.	.	.	.
8A	the	.	.	.	.
=74	=74	=74	=74	=74	=74
4.A	lone-	1r	.	1r	.
8e	-ly	.	.	.	.
2e	one	.	.	.	.
=75	=75	=75	=75	=75	=75
2r	.	1r	.	1r	.
8r	.	.	.	.	.
8c]	Re-	.	.	.	.
8c	-mem-	.	.	.	.
8A	-ber	.	.	.	.
=76	=76	=76	=76	=76	=76
4.A	what	1r	.	1r	.
8e	you've	.	.	.	.
4.e	done	.	.	.	.
16f	_	.	.	.	.
16e	_	.	.	.	.
=77	=77	=77	=77	=77	=77
4.d	_	1r	.	1r	.
16e	_	.	.	.	.
16r	.	.	.	.	.
8r	.	.	.	.	.
8dq	_	.	.	.	.
4e	Oh	.	.	.	.
8r	.	.	.	.	.
=78	=78	=78	=78	=78	=78
*	*	*clefF4	*	*	*
8e	It's	8G c	It's	1r	.
4d	so	4G B	so	.	.
[8d	fun	[8G [B	fun	.	.
8d]	_	8G] B]	_	.	.
4e	ny	4G c	ny	.	.
8r	.	8r	.	.	.
=79	=79	=79	=79	=79	=79
4r	.	4r	.	1r	.
8d	how	8G B	how	.	.
[8e	we	[8G [c	we	.	.
8e]	_	8G] c]	_	.	.
4d	don't	4G B	don't	.	.
[8f	talk	[8A [d	talk	.	.
=80	=80	=80	=80	=80	=80
4.f]	_	4.A] d]	_	1r	.
16e	a-	16A c	a-	.	.
16d	-ny-	16G B	-ny-	.	.
4.c	-more	4.F A	-more	.	.
8r	.	8r	.	.	.
=81	=81	=81	=81	=81	=81
1r	.	1r	.	1r	.
=82	=82	=82	=82	=82	=82
8e	It's	8G c	It's	1r	.
4d	so	4G B	so	.	.
[8d	fun	[8G [B	fun	.	.
8d]	_	8G] B]	_	.	.
4e	ny	4G c	ny	.	.
8r	.	8r	.	.	.
=83	=83	=83	=83	=83	=83
4r	.	4r	.	1r	.
8d	why	8G B	why	.	.
[8e	we	[8G [c	we	.	.
8e]	_	8G] c]	_	.	.
4d	don't	4G B	don't	.	.
[8f	talk	8A [d	talk	.	.
=84	=84	=84	=84	=84	=84
4.f]	_	4.A d]	_	1r	.
16f	a-	16A d	a-	.	.
16g	-ny-	16c e	-ny-	.	.
4.f	-more	4.A c	-more	.	.
8r	.	8r	.	.	.
=85	=85	=85	=85	=85	=85
4r	.	1r	.	1r	.
8r	.	.	.	.	.
16c	But	.	.	.	.
16c	I	.	.	.	.
8a	ain't	.	.	.	.
8g	lo-	.	.	.	.
8g	-sin'	.	.	.	.
8a	sleep	.	.	.	.
=86	=86	=86	=86	=86	=86
8fq	_	.	.	.	.
8g	_	1r	.	1r	.
8r	.	.	.	.	.
4r	.	.	.	.	.
2r	.	.	.	.	.
=87	=87	=87	=87	=87	=87
4r	.	1r	.	1r	.
8r	.	.	.	.	.
16e	And	.	.	.	.
16e	I	.	.	.	.
8f	ain't	.	.	.	.
8f	coun-	.	.	.	.
8f	-tin'	.	.	.	.
8g	sheep	.	.	.	.
=88	=88	=88	=88	=88	=88
8d#q	_	.	.	.	.
8e	_	4r	.	1r	.
8d#q	_	.	.	.	.
8e	_	.	.	.	.
8d#q	_	.	.	.	.
8e	_	8r	.	.	.
8r	.	8c e	Sheep!	.	.
.	.	8Bq 8dq	_	.	.
2r	.	8c e	_	.	.
.	.	8Bq 8dq	_	.	.
.	.	8c e	_	.	.
.	.	8Bq 8dq	_	.	.
.	.	8c e	_	.	.
.	.	8B d	_	.	.
=89	=89	=89	=89	=89	=89
8r	.	1r	.	1r	.
8d	No,	.	.	.	.
8d	no,	.	.	.	.
8e	no	.	.	.	.
16d	_	.	.	.	.
16B	_	.	.	.	.
8A	_	.	.	.	.
4r	.	.	.	.	.
=90	=90	=90	=90	=90	=90
*A:	*	*A:	*	*A:	*
*	*	*clefG2	*	*	*
1r	.	8e a cc#	It's	1r	.
.	.	4e g# b	so	.	.
.	.	[8e [g# [b	fun	.	.
.	.	8e] g#] b]	_	.	.
.	.	4e a cc#	ny	.	.
.	.	8r	.	.	.
=91	=91	=91	=91	=91	=91
1r	.	4r	.	1r	.
.	.	8e g# b	how	.	.
.	.	[8e [a [cc#	we	.	.
.	.	8e] a] cc#]	_	.	.
.	.	4e g# b	don't	.	.
.	.	[8f# [b [dd	talk!	.	.
=92	=92	=92	=92	=92	=92
*clefG2	*	*	*	*clefG2	*
2r	.	1f#_ b_ dd_	_	4.r	.
.	.	.	.	16cc#	A-
.	.	.	.	16cc#	-ny-
8r	.	.	.	8b	-more!
16a	A-	.	.	8a	_
[16a	-ny	.	.	.	.
16a]	_	.	.	8g#	_
8g#	more	.	.	.	.
.	.	.	.	8f#	_
[16f#	_	.	.	.	.
=93	=93	=93	=93	=93	=93
4.f#]	_	2f#] b] dd]	_	1r	.
16e	_	.	.	.	.
16d	_	.	.	.	.
2r	.	2r	.	.	.
=94	=94	=94	=94	=94	=94
*C:	*	*C:	*	*C:	*
4r	.	1r	.	1r	.
8r	.	.	.	.	.
8ddq	_	.	.	.	.
[8ee	Ah,	.	.	.	.
8ee]	_	.	.	.	.
[4.dd	_	.	.	.	.
=95	=95	=95	=95	=95	=95
4dd]	_	1r	.	1r	.
[4cc	_	.	.	.	.
8cc]	_	.	.	.	.
8cc	we	.	.	.	.
4dd	don't	.	.	.	.
=96	=96	=96	=96	=96	=96
8gq	_	.	.	.	.
6a	_	1r	.	1r	.
8gq	_	.	.	.	.
6a	_	.	.	.	.
6r	.	.	.	.	.
2r	.	.	.	.	.
=97	=97	=97	=97	=97	=97
1r	.	1r	.	1r	.
=98	=98	=98	=98	=98	=98
4r	.	1r	.	1r	.
8r	.	.	.	.	.
8ee	Ah,	.	.	.	.
8dd	_	.	.	.	.
[8cc	_	.	.	.	.
4cc_	_	.	.	.	.
=99	=99	=99	=99	=99	=99
16.cc]	_	1r	.	1r	.
32b	ooh	.	.	.	.
8dd	_	.	.	.	.
4r	.	.	.	.	.
2r	.	.	.	.	.
=100	=100	=100	=100	=100	=100
2r	.	1r	.	1r	.
8r	.	.	.	.	.
8ee	We	.	.	.	.
8ee	don't	.	.	.	.
[8dd	talk	.	.	.	.
=101	=101	=101	=101	=101	=101
8.dd]	_	1r	.	1r	.
16ee	_	.	.	.	.
4r	.	.	.	.	.
2r	.	.	.	.	.
=102	=102	=102	=102	=102	=102
2r	.	1r	.	1r	.
8r	.	.	.	.	.
4.ee	Ah,	.	.	.	.
=103	=103	=103	=103	=103	=103
4.dd	_	1r	.	1r	.
[8cc	_	.	.	.	.
8cc]	_	.	.	.	.
8dd	we	.	.	.	.
8dd	don't...	.	.	.	.
8r	.	.	.	.	.
*-	*-	*-	*-	*-	*-
!!!ENC: Nathaniel Condit-Schultz